cssgg/maximize.svg

<svg viewBox="0 0 24 24" xmlns="http://www.w3.org/2000/svg"><g><path d="M3 3h6v2H5v4H3V3Z"/><path d="M3 21h6v-2H5v-4H3v6Z"/><path d="M15 21h6v-6h-2v4h-4v2Z"/><path d="M21 3h-6v2h4v4h2V3Z"/></g></svg>

<svg
  width="24"
  height="24"
  viewBox="0 0 24 24"
  fill="none"
  xmlns="http://www.w3.org/2000/svg"
>
  <path d="M3 3H9V5H5V9H3V3Z" fill="currentColor" />
  <path d="M3 21H9V19H5V15H3V21Z" fill="currentColor" />
  <path d="M15 21H21V15H19V19H15V21Z" fill="currentColor" />
  <path d="M21 3H15V5H19V9H21V3Z" fill="currentColor" />
</svg>
